X:1
T: Bonnie Dundee
C:
R:Reel
Q: 232
K:A
M:4/4
L:1/8
|:cd|e2ee e2fg|ba gf e2ed|ce cA ce cA|cB BB B2cd|
e2ee e2fg|ba gf e2ed|ce cA Bd BG|A2c2 A2E2|
AG AB dc BA|BE EE E2EG|B^A Bc ed cB|dc cc c2AB|
cA Bc dB cd|ec de gf ed|ce cA Bd BG|A2c2 A2:|
